src/16/actions/view-media-equalizer.svg

<svg xmlns="http://www.w3.org/2000/svg" width="16" height="16"><defs><style id="current-color-scheme" type="text/css"></style></defs><path d="M10 2v1H1v2h9v1h2V2h-2zm3 1v2h2V3h-2zM4 6v1H1v2h3v1h2V6H4zm3 1v2h8V7H7zm1 3v1H1v2h7v1h2v-4H8zm3 1v2h4v-2h-4z" fill="currentColor" color="#565656"/></svg>

<svg xmlns="http://www.w3.org/2000/svg" width="16" height="16" viewBox="0 0 16 16">
 <defs>
  <style id="current-color-scheme" type="text/css">
   .ColorScheme-Text { color:#565656; } .ColorScheme-Highlight { color:#5294e2; }
  </style>
 </defs>
 <path style="fill:currentColor" class="ColorScheme-Text" d="M 10 2 L 10 3 L 1 3 L 1 5 L 10 5 L 10 6 L 12 6 L 12 2 L 10 2 z M 13 3 L 13 5 L 15 5 L 15 3 L 13 3 z M 4 6 L 4 7 L 1 7 L 1 9 L 4 9 L 4 10 L 6 10 L 6 6 L 4 6 z M 7 7 L 7 9 L 15 9 L 15 7 L 7 7 z M 8 10 L 8 11 L 1 11 L 1 13 L 8 13 L 8 14 L 10 14 L 10 10 L 8 10 z M 11 11 L 11 13 L 15 13 L 15 11 L 11 11 z"/>
</svg>
